rospo-icon-theme-classic-common/48x48/apps/pingus-icon.svg

<svg height="48" viewBox="0 0 48 48" width="48" xmlns="http://www.w3.org/2000/svg"><circle cx="24" cy="25" opacity=".2" r="20"/><circle cx="24" cy="24" fill="#4f4f4f" r="20"/><path d="m24 4a20 20 0 0 0 -20 20 20 20 0 0 0  .0215.582 20 20 0 0 1 19.9785-19.582 20 20 0 0 1 19.979 19.418 20 20 0 0 0  .021-.418 20 20 0 0 0 -20-20z" fill="#fff" opacity=".1"/><path d="m16 23a8 7.5994853 0 0 0 -7.7109375 5.607126c-.1816168.401277-.2890625.869043-.2890625 1.430849 0 .08606.013564.169375.015625.255039a8 7.5994853 0 0 0 -.015625.307549 8 7.5994853 0 0 0  .5566406 2.782934c1.8234354 5.534122 8.0374994 9.616503 15.4433594 9.616503 7.448277 0 13.689657-4.129616 15.472656-9.712142a8 7.5994853 0 0 0  .527344-2.687295 8 7.5994853 0 0 0 -.013672-.354431c.001375-.069996.013672-.137896.013672-.208157 0-.544517-.10238-.999914-.273438-1.393343a8 7.5994853 0 0 0 -7.726562-5.644632 8 7.5994853 0 0 0 -7.910156 6.522269c-.008389.00347-.089844.035631-.089844.035631s-.08145-.03216-.08984-.03563a8 7.5994853 0 0 0 -7.91016-6.52227z" opacity=".2"/><path d="m16 22a8 7.5994853 0 0 0 -7.7109375 5.607126c-.1816168.401277-.2890625.869043-.2890625 1.430849 0 .08606.013564.169375.015625.255039a8 7.5994853 0 0 0 -.015625.307549 8 7.5994853 0 0 0  .5566406 2.782934c1.8234354 5.534122 8.0374994 9.616503 15.4433594 9.616503 7.448277 0 13.689657-4.129616 15.472656-9.712142a8 7.5994853 0 0 0  .527344-2.687295 8 7.5994853 0 0 0 -.013672-.354431c.001375-.069996.013672-.137896.013672-.208157 0-.544517-.10238-.999914-.273438-1.393343a8 7.5994853 0 0 0 -7.726562-5.644632 8 7.5994853 0 0 0 -7.910156 6.522269c-.008389.00347-.089844.035631-.089844.035631s-.08145-.03216-.08984-.03563a8 7.5994853 0 0 0 -7.91016-6.52227z" fill="#fff"/><circle cx="18" cy="30" fill="#3f3f3f" r="2"/><circle cx="30" cy="30" fill="#3f3f3f" r="2"/><path d="m20.779291 31.72315h4 4l-2 3.464101-2 3.464102-2-3.464102z" fill="#e31b1b" opacity=".767" transform="matrix(1 0 0 1.010363 -.779291 .948103)"/></svg>

<svg xmlns="http://www.w3.org/2000/svg" width="48" height="48" version="1.1" viewBox="0 0 48 48">
 <circle style="opacity:0.2" cx="24" cy="25" r="20"/>
 <circle style="fill:#4f4f4f" cx="24" cy="24" r="20"/>
 <path style="opacity:0.1;fill:#ffffff" d="M 24 4 A 20 20 0 0 0 4 24 A 20 20 0 0 0 4.0215 24.582 A 20 20 0 0 1 24 5 A 20 20 0 0 1 43.979 24.418 A 20 20 0 0 0 44 24 A 20 20 0 0 0 24 4 z"/>
 <path d="M 16,23 A 8,7.5994853 0 0 0 8.2890625,28.607126 C 8.1074457,29.008403 8,29.476169 8,30.037975 c 0,0.08606 0.013564,0.169375 0.015625,0.255039 A 8,7.5994853 0 0 0 8,30.600563 8,7.5994853 0 0 0 8.5566406,33.383497 C 10.380076,38.917619 16.59414,43 24,43 31.448277,43 37.689657,38.870384 39.472656,33.287858 A 8,7.5994853 0 0 0 40,30.600563 8,7.5994853 0 0 0 39.986328,30.246132 C 39.987703,30.176136 40,30.108236 40,30.037975 40,29.493458 39.89762,29.038061 39.726562,28.644632 A 8,7.5994853 0 0 0 32,23 8,7.5994853 0 0 0 24.089844,29.522269 C 24.081455,29.525739 24,29.5579 24,29.5579 c 0,0 -0.08145,-0.03216 -0.08984,-0.03563 A 8,7.5994853 0 0 0 16,23 Z" style="opacity:0.2"/>
 <path style="fill:#ffffff" d="M 16,22 A 8,7.5994853 0 0 0 8.2890625,27.607126 C 8.1074457,28.008403 8,28.476169 8,29.037975 c 0,0.08606 0.013564,0.169375 0.015625,0.255039 A 8,7.5994853 0 0 0 8,29.600563 8,7.5994853 0 0 0 8.5566406,32.383497 C 10.380076,37.917619 16.59414,42 24,42 31.448277,42 37.689657,37.870384 39.472656,32.287858 A 8,7.5994853 0 0 0 40,29.600563 8,7.5994853 0 0 0 39.986328,29.246132 C 39.987703,29.176136 40,29.108236 40,29.037975 40,28.493458 39.89762,28.038061 39.726562,27.644632 A 8,7.5994853 0 0 0 32,22 8,7.5994853 0 0 0 24.089844,28.522269 C 24.081455,28.525739 24,28.5579 24,28.5579 c 0,0 -0.08145,-0.03216 -0.08984,-0.03563 A 8,7.5994853 0 0 0 16,22 Z"/>
 <circle style="fill:#3f3f3f" cx="18" cy="30" r="2"/>
 <circle cx="30" cy="30" r="2" style="fill:#3f3f3f"/>
 <path style="opacity:0.76700003;fill:#e31b1b" d="m 20.779291,31.72315 4,0 4,0 -2,3.464101 -2,3.464102 -2,-3.464102 z" transform="matrix(1,0,0,1.010363,-0.77929117,0.94810315)"/>
</svg>
